X:1
T:Pretty Little Dog
C:
M:4/4
L:1/4
K:Am
"Am"AE   GA/G/ |     E/D/C A,G, | "Am"A,/G,/A,/B,/ CD | "G"D/EG/ E/D/C |\
"Am"A3/A/   ED | "Am"E/D/C A,G, | "Am"A,A,/A,/ "G"CC | "Am"A,3/A,/ A,A,/B,/ ||
"Am"CA,/B,/ CD | "C"E/D/ (3C/B,/A,/ "G"G,G, | "Am"A,/G,/A,/G,/ CD | "E"D/EG/ E/D/C |\
"Am"A3/A/   ED | "C"E/D/C/G,/"G"A,G, | "Am"A,/G,/A,/G,/ "G"CC | "Am"A,3/ G,/A,(3e/f/g/ ||
"Am"ag e/d/c/d/ | "Am"e/g/e/d/ "G"c/A/G | "Am"A/G/A/B/    cd | "E"e3/g/ ee |\
"Am"ag e/d/c/d/ | "Am"e/g/e/d/ "G"c/A/G | "Am"A/G/A/B/ "E"cc | "Am"A3/B/ A2 ||
"Am"c/B/A/B/ cd |  "C"e/d/c/A/ "G"GA    | "Am"A/G/A/B/    cd | "E"ee/g/ ea- |\
"Am"ag e/d/c/d/ | "Am"e/g/e/d/ "G"c/A/G | "Am"A/G/A/B/ "E"cc | "Am"A2 A2 |]
